resources/images/ams_rfid_6.svg

<svg width="30" height="30" xmlns="http://www.w3.org/2000/svg" fill="none">
 <defs>
  <clipPath id="clip0_7112_29422">
   <rect id="svg_1" fill="white" height="30" width="30"/>
  </clipPath>
 </defs>
 <g>
  <title>Layer 1</title>
  <g id="svg_2" clip-path="url(#clip0_7112_29422)">
   <path id="svg_3" stroke="black" d="m31.1539,-1.15234l-32.30771,0l0,32.30764l32.30771,0l0,-32.30764z"/>
   <path id="svg_4" fill="#6B6B6B" d="m19.7865,5.34178c0.127,-0.1039 0.127,-0.2981 0,-0.4019l-4.3626,-3.5682c-0.1695,-0.1387 -0.4239,-0.0181 -0.4239,0.2009l0,2.42777c-0.5037,0 -1.0048,0.03459 -1.5,0.10275c-1.6434,0.22621 -3.2212,0.82225 -4.61127,1.75109c-1.80894,1.20869 -3.21884,2.92666 -4.0514,4.93661c-0.83256,2.01 -1.0504,4.2218 -0.62596,6.3555c0.42443,2.1338 1.47208,4.0938 3.01046,5.6322c1.53838,1.5384 3.49837,2.5861 5.63217,3.0105c2.1338,0.4244 4.3455,0.2066 6.3555,-0.626c2.01,-0.8325 3.728,-2.2424 4.9367,-4.0514c0.9288,-1.3901 1.5248,-2.9679 1.7511,-4.6113c0.0681,-0.4951 0.1027,-0.9962 0.1027,-1.5l-0.7499,0l-0.7501,0l-0.7499,0c0,1.7306 -0.5132,3.4224 -1.4747,4.8613c-0.9615,1.439 -2.328,2.5605 -3.9269,3.2228c-1.5989,0.6622 -3.3582,0.8355 -5.0555,0.4979c-1.6974,-0.3376 -3.2565,-1.171 -4.48022,-2.3947c-1.22372,-1.2237 -2.05709,-2.7828 -2.39471,-4.4802c-0.33762,-1.6973 -0.16434,-3.4567 0.49793,-5.0556c0.66227,-1.5988 1.78379,-2.96539 3.2227,-3.92686c1.439,-0.96147 3.1307,-1.47465 4.8613,-1.47465l0,2.45869c0,0.219 0.2544,0.3396 0.4239,0.201l4.3626,-3.5682z" clip-rule="evenodd" fill-rule="evenodd"/>
  </g>
 </g>
</svg>

<svg width="30" height="30" viewBox="0 0 30 30" fill="none" xmlns="http://www.w3.org/2000/svg">
<g clip-path="url(#clip0_10670_19506)">
<mask id="mask0_10670_19506" style="mask-type:luminance" maskUnits="userSpaceOnUse" x="0" y="0" width="30" height="30">
<path d="M30 0H0V30H30V0Z" fill="white"/>
</mask>
<g mask="url(#mask0_10670_19506)">
<path d="M31.1534 -1.15234H-1.1543V31.1553H31.1534V-1.15234Z" stroke="black"/>
<path fill-rule="evenodd" clip-rule="evenodd" d="M19.7865 5.34178C19.9135 5.23788 19.9135 5.04368 19.7865 4.93988L15.4239 1.37168C15.2544 1.23298 15 1.35358 15 1.57258V4.00035C14.4963 4.00035 13.9952 4.03494 13.5 4.1031C11.8566 4.32931 10.2788 4.92535 8.88873 5.85419C7.07979 7.06288 5.66989 8.78085 4.83733 10.7908C4.00477 12.8008 3.78693 15.0126 4.21137 17.1463C4.6358 19.2801 5.68345 21.2401 7.22183 22.7785C8.76021 24.3169 10.7202 25.3646 12.854 25.789C14.9878 26.2134 17.1995 25.9956 19.2095 25.163C21.2195 24.3305 22.9375 22.9206 24.1462 21.1116C25.075 19.7215 25.671 18.1437 25.8973 16.5003C25.9654 16.0052 26 15.5041 26 15.0003H25.2501H24.5H23.7501C23.7501 16.7309 23.2369 18.4227 22.2754 19.8616C21.3139 21.3006 19.9474 22.4221 18.3485 23.0844C16.7496 23.7466 14.9903 23.9199 13.293 23.5823C11.5956 23.2447 10.0365 22.4113 8.81278 21.1876C7.58906 19.9639 6.75569 18.4048 6.41807 16.7074C6.08045 15.0101 6.25373 13.2507 6.916 11.6518C7.57827 10.053 8.69979 8.68641 10.1387 7.72494C11.5777 6.76347 13.2694 6.25029 15 6.25029V8.70898C15 8.92798 15.2544 9.04858 15.4239 8.90998L19.7865 5.34178Z" fill="#6B6B6B"/>
</g>
</g>
<defs>
<clipPath id="clip0_10670_19506">
<rect width="30" height="30" fill="white"/>
</clipPath>
</defs>
</svg>
